app/svg/tick.svg

<svg width="18" height="16" viewBox="0 0 18 16" fill="none" xmlns="http://www.w3.org/2000/svg">
<path d="M16.9765 1.47254C16.615 1.14583 16.0646 1.18273 15.7475 1.55715L6.47356 12.5098L2.23198 7.83403C1.90276 7.47221 1.3523 7.45421 1.0013 7.79352C0.650296 8.13283 0.632002 8.70347 0.961222 9.06619L5.86038 14.4664C6.02586 14.6473 6.25491 14.7499 6.49619 14.7499H6.51099C6.75747 14.7463 6.98915 14.6347 7.15201 14.443L17.0592 2.74251C17.3754 2.3681 17.3388 1.80016 16.9765 1.47254Z" fill="currentColor"/>
<path fill-rule="evenodd" clip-rule="evenodd" d="M17.4544 0.908119C18.1183 1.50847 18.1853 2.54968 17.606 3.23562L7.6982 14.9369C7.40147 15.2862 6.97537 15.4932 6.52127 15.4999L6.51099 15.5L6.49619 15.4999C6.05425 15.4999 5.63479 15.3116 5.33297 14.9817L5.3309 14.9794L0.431864 9.57927C-0.171739 8.91411 -0.138424 7.86828 0.505497 7.24581C1.14841 6.62431 2.15717 6.65695 2.76072 7.32027L6.45503 11.3927L15.2013 1.06327C15.7829 0.376469 16.792 0.309334 17.4544 0.908119ZM6.47356 12.5098L2.23198 7.83403C1.90276 7.47221 1.3523 7.45421 1.0013 7.79352C0.650296 8.13283 0.632002 8.70347 0.961222 9.06619L5.86038 14.4664C6.02586 14.6473 6.25491 14.7499 6.49619 14.7499H6.51099C6.75747 14.7463 6.98915 14.6347 7.15201 14.443L17.0592 2.74251C17.3754 2.3681 17.3388 1.80016 16.9765 1.47254C16.615 1.14583 16.0646 1.18273 15.7475 1.55715L6.47356 12.5098Z" fill="currentColor"/>
</svg>

<svg xmlns="http://www.w3.org/2000/svg" fill="none" viewBox="0 0 18 16"><path fill="currentColor" d="M16.977 1.473a.852.852 0 0 0-1.23.084L6.475 12.51 2.232 7.834a.852.852 0 0 0-1.23-.04.922.922 0 0 0-.04 1.272l4.898 5.4a.86.86 0 0 0 .636.284h.015a.857.857 0 0 0 .641-.307l9.907-11.7a.921.921 0 0 0-.082-1.27Z"/><path fill="currentColor" fill-rule="evenodd" d="M17.454.908c.664.6.731 1.642.152 2.328l-9.908 11.7c-.297.35-.723.557-1.177.564h-.025c-.442 0-.861-.188-1.163-.518l-.002-.003-4.9-5.4a1.69 1.69 0 0 1 .074-2.333 1.561 1.561 0 0 1 2.256.074l3.694 4.073 8.746-10.33a1.561 1.561 0 0 1 2.253-.155ZM6.474 12.51 2.232 7.834a.852.852 0 0 0-1.23-.04.922.922 0 0 0-.04 1.272l4.898 5.4a.86.86 0 0 0 .636.284h.015a.857.857 0 0 0 .641-.307l9.907-11.7a.921.921 0 0 0-.082-1.27.852.852 0 0 0-1.23.084L6.475 12.51Z" clip-rule="evenodd"/></svg>
